X: 10533
T: HASLAM'S HORNPIPE
C: Arr. by W. B. Laybourn
R: hornpipe
B: K\"ohler's Violin Repository, v.1, 1885 p.53 #3
F: http://www.archive.org/details/klersviolinrepos01edin
Z: 2011 John Chambers <jc:trillian.mit.edu>
M: C|
L: 1/8
K: E
|:\
(3vgbg (3ege (3BeB G2 | B,>EG>B c2B2 | (3aba (3gag (3fgf (3efe | (3ded (3cdc (3BcB (3ABA |
(3gbg (3ege (3BeB G2 | B,>EG>B c2B2 | (3aba (3gag (3fgf (3edc | (3B^AB (3gfd e2e'2 :|
|: (ve'>g')e'>b (g>b)g>e | (B>c)B>G ([c2G2]B2) | (a>b)a>f (d>f)d>c | (B>c)B>A ([c2A2]B2) |
(e'>g')e'>b (g>b)g>e | (B>c)B>G ([c2G2]B2) | (3aba (3gag (3fgf (3edc | (3B^AB (3gfd e2e'2 :|

%%sep 2 1 500

